X: 76
T: Fors seullement contre
N: Derived from Ock3004-Fors_seullement_contre.krn
C: Johannes Ockeghem
%%abc-version 2.0
%%abcx-abcm2ps-target-version 5.9.1 (29 Sep 2008)
%%abc-creator hum2abc beta
%%abcx-conversion-date 2019/02/17 07:26:16
%%abc-edited-by Jesse Rodin
%%abc-edited-by Chris Gage 06-13-2012
%%abcx-initial-encoding-date 2012/08/15/
%%humdrum-veritas 3230011265
%%humdrum-veritas-data 3691102982
%%linebreak <none>
%%barnumbers 0
L: 1/4
M: 2/1
Q: 1/2=120
V: 1 clef=treble
V: 2 clef=treble-8
V: 3 clef=bass
K: F
[V:1] A8 | 
[V:2] d8 | 
[V:3] D,8 | 
[V:1] B4A4- | 
[V:2] d6cB | 
[V:3] D,4D,4 | 
[V:1] A2F2F3G | 
[V:2] A4d4 | 
[V:3] D,6C,B,, | 
[V:1] ABc4BA | 
[V:2] c6d2 | 
[V:3] A,,4A,,4 | 
[V:1] G4F4 | 
[V:2] _e4d4 | 
[V:3] C,4D,4 | 
[V:1] G4A4 | 
[V:2] c2B2A4 | 
[V:3] E,4F,4 | 
[V:1] B6A2 | 
[V:2] z2d2B2c2- | 
[V:3] G,6F,2 | 
[V:1] B4c3B | 
[V:2] c2d2_e2c2- | 
[V:3] _E,2D,2C,4 | 
[V:1] AGG4^F2 | 
[V:2] cBG2A4 | 
[V:3] z4D,4 | 
[V:1] G4z4 | 
[V:2] G8 | 
[V:3] B,,4G,,4 | 
[V:1] c4c4 | 
[V:2] z4F4 | 
[V:3] A,,8 | 
[V:1] B4A2F2 | 
[V:2] G4A2B2- | 
[V:3] G,,4D,4 | 
[V:1] G4c4 | 
[V:2] B2c2A4 | 
[V:3] E,4F,4 | 
[V:1] B4A3F | 
[V:2] G4z2F2 | 
[V:3] G,4A,4 | 
[V:1] G2F2D4- | 
[V:2] E2D4G2- | 
[V:3] B,4B,4 | 
[V:1] D4z4 | 
[V:2] G2^FE^F4 | 
[V:3] B,4A,4 | 
[V:1] d6cB | 
[V:2] G4z4 | 
[V:3] G,6F,E, | 
[V:1] A8 | 
[V:2] c6d2- | 
[V:3] F,8- | 
[V:1] A4c4 | 
[V:2] d2c2A4 | 
[V:3] F,8 | 
[V:1] B3AGFB2- | 
[V:2] G3FB3c | 
[V:3] z8 | 
[V:1] BAB2c2d2- | 
[V:2] d2B2z2f2 | 
[V:3] z4F,4 | 
[V:1] d2B2c4 | 
[V:2] d2_e4c2 | 
[V:3] G,4A,4 | 
[V:1] d6cB | 
[V:2] B3cd2e2 | 
[V:3] B,6A,G, | 
[V:1] A8 | 
[V:2] f4z4 | 
[V:3] F,8 | 
[V:1] z8 | 
[V:2] f3dc2d2- | 
[V:3] F,4F,4 | 
[V:1] z8 | 
[V:2] dcA2B4 | 
[V:3] G,8 | 
[V:1] F8 | 
[V:2] A4z4 | 
[V:3] A,8 | 
[V:1] G4A4 | 
[V:2] B4A2d2- | 
[V:3] G,4F,4 | 
[V:1] B2c3BAG | 
[V:2] d2c2c3B | 
[V:3] _E,8 | 
[V:1] B2A4d2- | 
[V:2] d3ef4 | 
[V:3] D,8- | 
[V:1] dcBAB2A2 | 
[V:2] z2d2d3c | 
[V:3] D,8- | 
[V:1] z2A4F2 | 
[V:2] B2A2z2d2- | 
[V:3] D,8 | 
[V:1] E3DF4 | 
[V:2] d2c2d4 | 
[V:3] z8 | 
[V:1] G2A4c2- | 
[V:2] e2d2f3e | 
[V:3] z8 | 
[V:1] c2B2A4 | 
[V:2] dcd2c2A2- | 
[V:3] z8 | 
[V:1] d4c2B2- | 
[V:2] A2G2A2B2 | 
[V:3] z8 | 
[V:1] BAA4G2 | 
[V:2] c2d2B4 | 
[V:3] z8 | 
[V:1] !fermata!A8 | 
[V:2] !fermata!A4z4 | 
[V:3] !fermata!F,8 | 
[V:1] z4G4 | 
[V:2] d4B4 | 
[V:3] G,4G,4 | 
[V:1] A4F4 | 
[V:2] c4d4 | 
[V:3] F,4D,4 | 
[V:1] G4G4 | 
[V:2] B2c3BAG | 
[V:3] _E,4E,4 | 
[V:1] A4D4 | 
[V:2] F4F2G2- | 
[V:3] D,4B,,4 | 
[V:1] E4E4 | 
[V:2] GFEDG2A2 | 
[V:3] C,8 | 
[V:1] D4z2d2- | 
[V:2] B3GF2G2 | 
[V:3] B,,6A,,G,, | 
[V:1] d2c2B2G2 | 
[V:2] A4G4 | 
[V:3] F,,4z4 | 
[V:1] A6F2 | 
[V:2] z2c4A2 | 
[V:3] F,8 | 
[V:1] F4z4 | 
[V:2] B2A2d4- | 
[V:3] D,4D,4 | 
[V:1] F4G4 | 
[V:2] d4z4 | 
[V:3] B,,8 | 
[V:1] A6GF | 
[V:2] c6B2 | 
[V:3] A,,6B,,2 | 
[V:1] E4F2A2- | 
[V:2] G4F4 | 
[V:3] C,4D,4 | 
[V:1] AGG4^FE | 
[V:2] G4A4 | 
[V:3] C,2B,,2A,,4 | 
[V:1] ^F4G4 | 
[V:2] D4z2E2 | 
[V:3] z4G,,4- | 
[V:1] z2B3AGF | 
[V:2] D2d3cBA | 
[V:3] G,,4B,,4- | 
[V:1] G4F4 | 
[V:2] B4A4 | 
[V:3] B,,2C,2D,4 | 
[V:1] z2G2F2A2- | 
[V:2] B4A4 | 
[V:3] _E,4F,4- | 
[V:1] ABc4BA | 
[V:2] z2A4GF | 
[V:3] F,2E,2C,4- | 
[V:1] G2F2B4 | 
[V:2] E2D2z2d2 | 
[V:3] C,2D,2E,2F,2 | 
[V:1] z2B4AG | 
[V:2] _e2d3Bc2 | 
[V:3] G,6F,2 | 
[V:1] F2G2A4 | 
[V:2] d2G2z2F2 | 
[V:3] D,2C,2F,4 | 
[V:1] G2A3G/F/E3/D/ | 
[V:2] G2F2B2c2 | 
[V:3] E,2D,4C,2 | 
[V:1] F3GA2B2- | 
[V:2] A2d3cBA | 
[V:3] D,8- | 
[V:1] BGG4^F2 | 
[V:2] B3A/G/A4 | 
[V:3] D,8 | 
[V:1] G8 |]  
[V:2] G8 |]  
[V:3] G,,8 |]  



